X: 178
T: Devil in the Bush
%R: reel
B: "The Compleat Country Dancing-Master" printed by John Walsh, London ca. 1740
S: 6: CCDM2 http://imslp.org/wiki/The_Compleat_Country_Dancing-Master_(Various) V.2 (65)
Z: 2013 John Chambers <jc:trillian.mit.edu>
N: Repeats added to satisfy the "Each strain twice" instruction.
M: C|
L: 1/8
K: F
% - - - - - - - - - - - - - - - - - - - - - - - - -
|:\
f2g2 a2ga | bagf e2c2 | dcBA G2c2 | A2F2 c4 |\
f2g2 a2ga | bagf e2c2 | dcBA G2c2 | A2F2- F4 :|
|:\
G2E2 GEGE | c2G2 A2F2 | d2B2 dBdB | g2d2 e2c2 |\
a2gf g2fe | defg e2c2 | dcBA G2c2 | A2F2- F4 :|
% - - - - - - - - - - - - - - - - - - - - - - - - -
%%center Each strain twice
%%begintext align
%% The 1st Cu. go with inside of the 2d Cu. then on the out
%% side of the 3d Cu. and lead up to the Top and cast off .|
%% then the 2d Cu. do the same :| Then the 1st and 2d Men
%% sett to their Partners and take Hands and go quite round
%% then lead between the 2d Cu. and cast up. then right
%% and left Hands half round :|
%%endtext
%%sep 1 8 500

%%sep 1 1 500
%%sep 1 1 500
